X: 11182
Q: "Andantino"
M: C
L: 1/8
K: D
(de)(fg) a2a2 | (gf)(ga) f2za |\
g2e2 f3d | e2c2 d2zA |\
(de)(fg) a2a2 | gfga f2za |
g2e2 f3d | e2c2 d2zA |\
e2ze f2f2 | ^g3g {gb}a2za |\
a2f2 f2za |
g2e2 e2zd |\
e2d2 c2d2 | g2f2 (f2e) a |\
a2f2 f2zg | g2e2 e2zg |\
(fe)(gf) e2d2 | (fe)(dc) c2z |]



